frontend/public/img/none.svg

<svg width="32" height="32" viewBox="0 0 32 32" fill="none" xmlns="http://www.w3.org/2000/svg">
<path d="M2 1.5C2 0.671573 2.67157 0 3.5 0H18L30 10.5V30.5C30 31.3284 29.3284 32 28.5 32H3.5C2.67157 32 2 31.3284 2 30.5V1.5Z" fill="#83BF8D"/>
<path d="M16.0612 14.6246C17.0546 14.6246 17.8647 14.8845 18.476 15.4347C19.0874 15.9696 19.3931 16.7032 19.3931 17.6356C19.3931 18.3997 19.1944 19.0264 18.8276 19.5155C18.69 19.6683 18.2468 20.081 17.5132 20.7229C17.238 20.9521 17.0394 21.212 16.9018 21.4871C16.749 21.7928 16.6725 22.1137 16.6725 22.4805V22.6945H14.9149V22.4805C14.9149 21.8997 15.0066 21.3954 15.2206 20.9827C15.4193 20.57 16.0153 19.9281 17.0088 19.0417L17.1922 18.8277C17.4673 18.4914 17.6049 18.1246 17.6049 17.7425C17.6049 17.2382 17.452 16.8408 17.1769 16.5504C16.8865 16.26 16.4739 16.1225 15.9542 16.1225C15.2817 16.1225 14.8079 16.3211 14.5175 16.7491C14.2577 17.1006 14.1354 17.605 14.1354 18.2469H12.3931C12.3931 17.1159 12.714 16.2294 13.3865 15.5875C14.0437 14.9456 14.9302 14.6246 16.0612 14.6246ZM15.7861 23.4434C16.1223 23.4434 16.4127 23.5504 16.642 23.7644C16.8559 23.9783 16.9782 24.2535 16.9782 24.5897C16.9782 24.9259 16.8559 25.2163 16.6267 25.4303C16.3974 25.6443 16.1223 25.7513 15.7861 25.7513C15.4498 25.7513 15.1747 25.629 14.9455 25.415C14.7162 25.2011 14.6092 24.9259 14.6092 24.5897C14.6092 24.2535 14.7162 23.9783 14.9455 23.7644C15.1747 23.5504 15.4498 23.4434 15.7861 23.4434Z" fill="white"/>
<path d="M18 10.5V0L30 10.5H18Z" fill="#659D6E"/>
</svg>

<?xml version="1.0" encoding="utf-8"?>
<!-- Generator: Adobe Illustrator 25.3.1, SVG Export Plug-In . SVG Version: 6.00 Build 0)  -->
<svg version="1.1" id="图层_1" xmlns="http://www.w3.org/2000/svg" xmlns:xlink="http://www.w3.org/1999/xlink" x="0px" y="0px"
	 viewBox="0 0 32 32" style="enable-background:new 0 0 32 32;" xml:space="preserve">
<style type="text/css">
	.st0{fill:#83BF8D;}
	.st1{fill:#FFFFFF;}
	.st2{fill:#659D6E;}
</style>
<path class="st0" d="M2,1.5C2,0.7,2.7,0,3.5,0H18l12,10.5v20c0,0.8-0.7,1.5-1.5,1.5h-25C2.7,32,2,31.3,2,30.5V1.5z"/>
<path class="st1" d="M16.1,14.6c1,0,1.8,0.3,2.4,0.8c0.6,0.5,0.9,1.3,0.9,2.2c0,0.8-0.2,1.4-0.6,1.9c-0.1,0.2-0.6,0.6-1.3,1.2
	c-0.3,0.2-0.5,0.5-0.6,0.8c-0.2,0.3-0.2,0.6-0.2,1v0.2h-1.8v-0.2c0-0.6,0.1-1.1,0.3-1.5c0.2-0.4,0.8-1.1,1.8-1.9l0.2-0.2
	c0.3-0.3,0.4-0.7,0.4-1.1c0-0.5-0.2-0.9-0.4-1.2c-0.3-0.3-0.7-0.4-1.2-0.4c-0.7,0-1.1,0.2-1.4,0.6c-0.3,0.4-0.4,0.9-0.4,1.5h-1.7
	c0-1.1,0.3-2,1-2.7C14,14.9,14.9,14.6,16.1,14.6z M15.8,23.4c0.3,0,0.6,0.1,0.9,0.3c0.2,0.2,0.3,0.5,0.3,0.8c0,0.3-0.1,0.6-0.4,0.8
	c-0.2,0.2-0.5,0.3-0.8,0.3c-0.3,0-0.6-0.1-0.8-0.3c-0.2-0.2-0.3-0.5-0.3-0.8c0-0.3,0.1-0.6,0.3-0.8C15.2,23.6,15.4,23.4,15.8,23.4z"
	/>
<path class="st2" d="M18,10.5V0l12,10.5H18z"/>
</svg>
